X:161
T: HERMEN FLA DERMEN
N: E1279A
O: Europa, Mitteleuropa, Deutschland
R: Staende -, Soldaten -, Kriegs - Lied
M: 4/4
L: 1/8
K: E
 | =G3FE2G2 | A4=G2
EF | =G3FE2G2 | A4=G2
AB | =c3BA2=G2 | A4=G2
G2 | A3=GF2E2 | F4E2
F=G | A3=GF2E2 | F4E2z2

